!! 00044] TT[TB
!! Zh. Ch. 1-1855, 570896), Peking: 28832/ 24483)
!!!OTL: Lang da shaozi ying guo gou
!!!ARE: Asia, China,ÿSichuan, Daxian
!! Ethnic Group: Han
!! MM,
!!!SCT: C1216
!!!YEM: Copyright 1995, estate of Helmut Schaffrath.
**kern
*ICvox
*Ivox
*M2/4
*k[f#c#g#]
*A:
{8cc#
8ff#
8aa
8ff#
=1
2ff#
=2
2ccc#
=3
2ee}
=4
{8ccc#
16ccc#
16eee
8.ccc#
16bb
=5
8eee
16aa
[16ff#
4ff#]}
=6
{8bb
8eee
8ccc#
8ccc#
=7
4.bb
8ccc#
=8
16bb
16ccc#
8aa
8aa
8ff#
=9
8bb
4.ff#}
=10
{8cc#
8ff#
8aa
8cc#
=11
2ff#
=12
2ccc#
=13
4.eee}
{8eee
=14
8bb
16ccc#
16eee
8.ccc#
16bb
=15
8ccc#
16aa
[16ff#
8ff#]}
{8ccc#
=16
8aa
8ccc#
8aa
8bb
=17
4.bb
8ff#
=18
8aa
8aa
4bb
=19
8bb
4.ff#}
=20
{8.cc#
16ff#
8ff#
8cc#
=21
8ff#
4r
16ff#
16ff#
=22
16ff#
16aa
4cc#
16ff#
16aa
=23
8ff#
4.ff#
=24
4r}
{16r
8.bb
=25
8aa
8aa
8aa
8aa
=26
2bb
=27
8ccc#
8bb
4bb
=28
8bb
4.ff#}
=29
{8aa
8cc#
8ff#
8aa
=30
8ff#
4ff#
8aa
=31
8aa
8ccc#
8.ccc#
16aa
=32
4bb
8r}
{8bb
=33
16bb
16ccc#
8aa
8ccc#
16aa
[16ff#
=34
2ff#]}
==
!!!AGN: Shange, Shaozi
!! Notenbeilage kopiert
!!    Wenig Verzierungen. Grundton- und Taktangabe fehlen.
!!    T.25 geaendert! In der Vorlage notiert: 0__0__+2_. ?
!!!ONB: ESAC (Essen Associative Code) Database: CHINA
!!!AMT: simple duple
!!!AIN: vox
!!!EED: Helmut Schaffrath
!!!EEV: 1.0
*-
!!!ONB: Tied note syntax fixed by Craig Sapp, 2004/05/03/
